neru-light-classic/22x22/emotes/face-kiss-symbolic.svg

<svg xmlns="http://www.w3.org/2000/svg" width="16" height="16"><path d="M8 1C4.13 1 1 4.13 1 8c0 3.86 3.13 7 7 7s7-3.14 7-7c0-3.87-3.13-7-7-7zm4.09 3.37c.01-.02.44.08.5.63.07.54-.4 1-.4 1S9.01 6.01 9 6c-.19-.3-.27-.77.06-1.07.02 0 3.03-.54 3.03-.56zm-8.4.03c.04-.01.06 0 .06 0 .01.02 2.98.56 3 .56.34.3.29.78.09 1.07-.01.01-3.18 0-3.18 0s-.48-.46-.41-1c.05-.41.31-.58.44-.63zm5.69 3.9c.52.09.85.57 1.27.85.43.32.9.56 1.33.88-.2.21-.64.33-.9.56-.41.33-.69.8-1.06 1.18-.41.44-.93.83-1.54.92-.32.03-.65.02-.98-.02-.18.05-.49-.13-.7-.23-.92-.48-1.33-1.54-2.22-2.06-.16-.13-.46-.2-.56-.35.72-.41 1.4-.89 2.02-1.45.25-.19.6-.34.9-.18.49.24 1.05.42 1.59.23.29-.07.55-.27.85-.33zm-1.91 1.72c-.27.11-.56.26-.81.37.15.13.46.21.66.34.32.21.73.23 1.09.12.32-.14.63-.32.96-.44-.2-.13-.54-.24-.78-.37-.38.01-.74.09-1.12-.02z" fill="#1e333d"/></svg>

<svg xmlns="http://www.w3.org/2000/svg" width="16" height="16" version="1.1">
 <path style="fill:#1e333d" d="M 8,1 C 4.13,1 1,4.13 1,8 1,11.86 4.13,15 8,15 11.87,15 15,11.86 15,8 15,4.13 11.87,1 8,1 Z M 12.09,4.37 C 12.1,4.35 12.53,4.45 12.59,5 12.66,5.54 12.19,6 12.19,6 12.19,6 9.01,6.01 9,6 8.81,5.7 8.73,5.23 9.06,4.93 9.08,4.93 12.09,4.39 12.09,4.37 Z M 3.69,4.4 C 3.73,4.39 3.75,4.4 3.75,4.4 3.76,4.42 6.73,4.96 6.75,4.96 7.09,5.26 7.04,5.74 6.84,6.03 6.83,6.04 3.66,6.03 3.66,6.03 3.66,6.03 3.18,5.57 3.25,5.03 3.3,4.62 3.56,4.45 3.69,4.4 Z M 9.38,8.3 C 9.9,8.39 10.23,8.87 10.65,9.15 11.08,9.47 11.55,9.71 11.98,10.03 11.78,10.24 11.34,10.36 11.08,10.59 10.67,10.92 10.39,11.39 10.02,11.77 9.61,12.21 9.09,12.6 8.48,12.69 8.16,12.72 7.83,12.71 7.5,12.67 7.32,12.72 7.01,12.54 6.8,12.44 5.88,11.96 5.47,10.9 4.58,10.38 4.42,10.25 4.12,10.18 4.02,10.03 4.74,9.62 5.42,9.14 6.04,8.58 6.29,8.39 6.64,8.24 6.94,8.4 7.43,8.64 7.99,8.82 8.53,8.63 8.82,8.56 9.08,8.36 9.38,8.3 Z M 7.47,10.02 C 7.2,10.13 6.91,10.28 6.66,10.39 6.81,10.52 7.12,10.6 7.32,10.73 7.64,10.94 8.05,10.96 8.41,10.85 8.73,10.71 9.04,10.53 9.37,10.41 9.17,10.28 8.83,10.17 8.59,10.04 8.21,10.05 7.85,10.13 7.47,10.02 Z"/>
</svg>
